svgs/solid/ufo-beam.svg

<svg xmlns="http://www.w3.org/2000/svg" viewBox="0 0 576 512"><!--! Font Awesome Pro 6.0.0-alpha3 by @fontawesome - https://fontawesome.com License - https://fontawesome.com/license (Commercial License) --><path d="M1.722 481.7c-4 8-.7406 17.61 7.134 21.48l14.29 7.145c8 4 17.48 .7363 21.48-7.141l81.72-163.4C127.2 338 127.8 336 127.9 334c-15.38-3.75-30.61-8.238-45.61-13.49L1.722 481.7zM493.7 320.5c-15 5.25-30.24 9.737-45.62 13.49c.125 2.002 .6602 4.022 1.535 5.772l81.72 163.4c4 7.877 13.48 11.14 21.48 7.141l14.28-7.143c7.875-3.875 11.14-13.48 7.139-21.48L493.7 320.5zM575.1 208c0-40.88-56.5-76.5-140.6-96.12C417.3 47.63 358.4 0 288 0S158.8 47.63 140.8 111.9C56.5 131.5 .0025 167.1 .0025 208c0 61.88 128.1 112 287.1 112S575.1 269.9 575.1 208zM96 232c-13.25 0-24-10.75-24-24c0-13.25 10.75-24 24-24S120 194.8 120 208C120 221.3 109.3 232 96 232zM288 280c-13.25 0-24-10.75-24-24c0-13.25 10.75-24 24-24S312 242.8 312 256C312 269.3 301.3 280 288 280zM392.3 166.5C360 183.3 324.3 192 288 192S216 183.3 183.8 166.5C183 161.9 182.6 157.4 182.4 152.8c0-57.88 47.25-104.8 105.6-104.8s105.6 46.88 105.6 104.8C393.5 157.4 393 161.9 392.3 166.5zM480 232c-13.25 0-24-10.75-24-24c0-13.25 10.75-24 24-24S504 194.8 504 208C504 221.3 493.3 232 480 232z"/></svg>

<svg xmlns="http://www.w3.org/2000/svg" viewBox="0 0 576 512"><!-- Font Awesome Pro 6.0.0-alpha2 by @fontawesome - https://fontawesome.com License - https://fontawesome.com/license (Commercial License) --><path d="M1.75 481.658C-2.25 489.658 1 499.283 8.875 503.158L23.125 510.285C31.125 514.285 40.625 511.035 44.625 503.158L126.375 339.773C127.25 338.023 127.75 336.023 127.875 334.021C112.5 330.271 97.25 325.771 82.25 320.521L1.75 481.658ZM493.75 320.521C478.75 325.771 463.5 330.271 448.125 334.021C448.25 336.023 448.75 338.023 449.625 339.773L531.375 503.158C535.375 511.035 544.875 514.285 552.875 510.285L567.125 503.158C575 499.283 578.25 489.658 574.25 481.658L493.75 320.521ZM576 208.014C576 167.137 519.5 131.508 435.375 111.883C417.25 47.627 358.375 0 288 0S158.75 47.627 140.75 111.883C56.5 131.508 0 167.137 0 208.014C0 269.893 129 320.021 288 320.021S576 269.893 576 208.014ZM96 232.016C82.75 232.016 72 221.266 72 208.014C72 194.764 82.75 184.012 96 184.012S120 194.764 120 208.014C120 221.266 109.25 232.016 96 232.016ZM288 280.02C274.75 280.02 264 269.268 264 256.018C264 242.766 274.75 232.016 288 232.016S312 242.766 312 256.018C312 269.268 301.25 280.02 288 280.02ZM392.25 166.512C360 183.262 324.25 192.012 288 192.012S216 183.262 183.75 166.512C183 161.885 182.625 157.385 182.375 152.76C182.375 94.881 229.625 48.002 288 48.002S393.625 94.881 393.625 152.76C393.5 157.385 393 161.885 392.25 166.512ZM480 232.016C466.75 232.016 456 221.266 456 208.014C456 194.764 466.75 184.012 480 184.012S504 194.764 504 208.014C504 221.266 493.25 232.016 480 232.016Z"/></svg>
